X: 10844
M: 3/4
L: 1/8
K: G
(GF)(AG)(BA) | (cB)(dc)(ed) | (gfe)(dc)B | (dc)A3F |\
|: d2 |\
d'(^c'd')(^ab)(f | g)(^cd)(^AB)G | (FAd)faf | (ga)bgd2 |\
d'(^c'd')(^ab)(f | g)(^cd)(^AB)(G | F)Adfab | g2z2 :|
|: df |\
gBdBgB | bdgdbd | acfcaf | gabgdf |\
gBdBgB | bdgdbd | acfcaf | g2z2 :|
|: g2 |\
fAcAfA | gBdBgB | acfcac | b2{f}g2dg |\
fAcAfA | gBdBgB | bagfed | g2z2 H:|



